inst/assets/svg/wi-night-sprinkle.svg

<?xml version="1.0" encoding="UTF-8"?>
<svg xmlns="http://www.w3.org/2000/svg" xmlns:xlink="http://www.w3.org/1999/xlink" width="30pt" height="30pt" viewBox="0 0 30 30" version="1.1">
<g id="surface786">
<path style=" stroke:none;fill-rule:nonzero;fill:rgb(0%,0%,0%);fill-opacity:1;" d="M 4.21875 16.890625 C 4.21875 18.21875 4.679688 19.371094 5.609375 20.328125 C 6.539063 21.289063 7.671875 21.800781 9.019531 21.859375 C 9.128906 21.859375 9.191406 21.800781 9.191406 21.691406 L 9.191406 20.320313 C 9.191406 20.191406 9.128906 20.128906 9.019531 20.128906 C 8.140625 20.070313 7.410156 19.71875 6.808594 19.101563 C 6.210938 18.480469 5.910156 17.738281 5.910156 16.890625 C 5.910156 16.050781 6.191406 15.308594 6.761719 14.691406 C 7.328125 14.070313 8.03125 13.71875 8.871094 13.648438 L 9.390625 13.578125 C 9.511719 13.578125 9.578125 13.519531 9.578125 13.390625 L 9.648438 12.890625 C 9.761719 11.808594 10.21875 10.898438 11.03125 10.171875 C 11.839844 9.441406 12.800781 9.070313 13.898438 9.070313 C 14.988281 9.070313 15.949219 9.429688 16.761719 10.160156 C 17.570313 10.890625 18.039063 11.800781 18.160156 12.878906 L 18.21875 13.449219 C 18.21875 13.570313 18.28125 13.628906 18.410156 13.628906 L 20.011719 13.628906 C 20.921875 13.628906 21.691406 13.949219 22.328125 14.578125 C 22.96875 15.210938 23.300781 15.980469 23.300781 16.859375 C 23.300781 17.710938 23 18.449219 22.410156 19.070313 C 21.820313 19.691406 21.078125 20.039063 20.21875 20.101563 C 20.078125 20.101563 20.011719 20.160156 20.011719 20.289063 L 20.011719 21.660156 C 20.011719 21.769531 20.078125 21.828125 20.21875 21.828125 C 21.550781 21.789063 22.679688 21.28125 23.609375 20.320313 C 24.539063 19.351563 25 18.199219 25 16.871094 C 25 16.128906 24.859375 15.460938 24.570313 14.859375 C 25.359375 13.898438 25.75 12.789063 25.75 11.5 C 25.75 10.558594 25.511719 9.679688 25.039063 8.871094 C 24.570313 8.058594 23.929688 7.421875 23.121094 6.949219 C 22.308594 6.480469 21.441406 6.238281 20.5 6.238281 C 18.980469 6.238281 17.671875 6.820313 16.570313 7.988281 C 15.738281 7.609375 14.851563 7.398438 13.898438 7.398438 C 12.488281 7.398438 11.230469 7.839844 10.140625 8.710938 C 9.050781 9.578125 8.339844 10.710938 8.039063 12.078125 C 6.929688 12.339844 6.019531 12.921875 5.300781 13.820313 C 4.578125 14.710938 4.21875 15.738281 4.21875 16.890625 Z M 10.148438 17.769531 C 10.148438 18.148438 10.289063 18.46875 10.578125 18.75 C 10.859375 19.019531 11.199219 19.160156 11.601563 19.160156 C 12 19.160156 12.328125 19.03125 12.601563 18.761719 C 12.871094 18.488281 13.011719 18.160156 13.011719 17.78125 C 13.011719 17.519531 12.890625 17.179688 12.660156 16.761719 C 12.429688 16.339844 12.210938 16 12 15.761719 C 11.980469 15.738281 11.921875 15.671875 11.820313 15.558594 C 11.71875 15.449219 11.648438 15.371094 11.609375 15.320313 L 11.25 15.71875 C 10.96875 16.019531 10.71875 16.371094 10.5 16.769531 C 10.269531 17.171875 10.148438 17.511719 10.148438 17.769531 Z M 13.140625 21.761719 C 13.140625 22.390625 13.371094 22.941406 13.828125 23.398438 C 14.289063 23.859375 14.839844 24.089844 15.480469 24.089844 C 16.121094 24.089844 16.679688 23.859375 17.140625 23.398438 C 17.601563 22.941406 17.828125 22.390625 17.828125 21.761719 C 17.828125 21.488281 17.75 21.171875 17.601563 20.789063 C 17.441406 20.410156 17.261719 20.070313 17.039063 19.75 C 16.578125 19.160156 16.148438 18.660156 15.75 18.261719 C 15.691406 18.21875 15.609375 18.128906 15.488281 18.019531 L 14.898438 18.601563 C 14.460938 19.019531 14.050781 19.550781 13.691406 20.160156 C 13.320313 20.78125 13.140625 21.308594 13.140625 21.761719 Z M 14.621094 15.058594 C 14.621094 15.328125 14.710938 15.550781 14.898438 15.730469 C 15.089844 15.910156 15.328125 16 15.609375 16 C 15.871094 16 16.089844 15.910156 16.269531 15.730469 C 16.449219 15.550781 16.539063 15.328125 16.539063 15.058594 C 16.539063 14.648438 16.230469 14.121094 15.609375 13.449219 L 15.359375 13.710938 C 15.171875 13.910156 15 14.140625 14.851563 14.410156 C 14.691406 14.671875 14.621094 14.890625 14.621094 15.058594 Z M 18.011719 9.019531 C 18.679688 8.359375 19.511719 8.03125 20.488281 8.03125 C 21.46875 8.03125 22.300781 8.371094 22.980469 9.050781 C 23.660156 9.730469 24.011719 10.558594 24.011719 11.53125 C 24.011719 12.160156 23.839844 12.78125 23.5 13.378906 C 22.5 12.421875 21.328125 11.941406 19.988281 11.941406 L 19.699219 11.941406 C 19.421875 10.761719 18.851563 9.789063 18.011719 9.019531 Z M 18.011719 9.019531 "/>
</g>
</svg>

<?xml version="1.0" encoding="utf-8"?>
<!-- Generator: Adobe Illustrator 22.0.1, SVG Export Plug-In . SVG Version: 6.00 Build 0)  -->
<svg version="1.1" id="Layer_1" xmlns="http://www.w3.org/2000/svg" xmlns:xlink="http://www.w3.org/1999/xlink" x="0px" y="0px"
	 viewBox="0 0 30 30" style="enable-background:new 0 0 30 30;" xml:space="preserve">
<path d="M4.22,16.89c0,1.33,0.46,2.48,1.39,3.44s2.06,1.47,3.41,1.53c0.11,0,0.17-0.06,0.17-0.17v-1.37c0-0.13-0.06-0.19-0.17-0.19
	c-0.88-0.06-1.61-0.41-2.21-1.03c-0.6-0.62-0.9-1.36-0.9-2.21c0-0.84,0.28-1.58,0.85-2.2c0.57-0.62,1.27-0.97,2.11-1.04l0.52-0.07
	c0.12,0,0.19-0.06,0.19-0.19l0.07-0.5c0.11-1.08,0.57-1.99,1.38-2.72s1.77-1.1,2.87-1.1c1.09,0,2.05,0.36,2.86,1.09
	c0.81,0.73,1.28,1.64,1.4,2.72l0.06,0.57c0,0.12,0.06,0.18,0.19,0.18h1.6c0.91,0,1.68,0.32,2.32,0.95c0.64,0.63,0.97,1.4,0.97,2.28
	c0,0.85-0.3,1.59-0.89,2.21c-0.59,0.62-1.33,0.97-2.19,1.03c-0.14,0-0.21,0.06-0.21,0.19v1.37c0,0.11,0.07,0.17,0.21,0.17
	c1.33-0.04,2.46-0.55,3.39-1.51c0.93-0.97,1.39-2.12,1.39-3.45c0-0.74-0.14-1.41-0.43-2.01c0.79-0.96,1.18-2.07,1.18-3.36
	c0-0.94-0.24-1.82-0.71-2.63s-1.11-1.45-1.92-1.92c-0.81-0.47-1.68-0.71-2.62-0.71c-1.52,0-2.83,0.58-3.93,1.75
	C15.74,7.61,14.85,7.4,13.9,7.4c-1.41,0-2.67,0.44-3.76,1.31s-1.8,2-2.1,3.37c-1.11,0.26-2.02,0.84-2.74,1.74
	C4.58,14.71,4.22,15.74,4.22,16.89z M10.15,17.77c0,0.38,0.14,0.7,0.43,0.98c0.28,0.27,0.62,0.41,1.02,0.41s0.73-0.13,1-0.4
	c0.27-0.27,0.41-0.6,0.41-0.98c0-0.26-0.12-0.6-0.35-1.02c-0.23-0.42-0.45-0.76-0.66-1c-0.02-0.02-0.08-0.09-0.18-0.2
	c-0.1-0.11-0.17-0.19-0.21-0.24l-0.36,0.4c-0.28,0.3-0.53,0.65-0.75,1.05C10.27,17.17,10.15,17.51,10.15,17.77z M13.14,21.76
	c0,0.63,0.23,1.18,0.69,1.64c0.46,0.46,1.01,0.69,1.65,0.69c0.64,0,1.2-0.23,1.66-0.69c0.46-0.46,0.69-1.01,0.69-1.64
	c0-0.27-0.08-0.59-0.23-0.97c-0.16-0.38-0.34-0.72-0.56-1.04c-0.46-0.59-0.89-1.09-1.29-1.49c-0.06-0.04-0.14-0.13-0.26-0.24
	L14.9,18.6c-0.44,0.42-0.85,0.95-1.21,1.56C13.32,20.78,13.14,21.31,13.14,21.76z M14.62,15.06c0,0.27,0.09,0.49,0.28,0.67
	s0.43,0.27,0.71,0.27c0.26,0,0.48-0.09,0.66-0.27s0.27-0.4,0.27-0.67c0-0.41-0.31-0.94-0.93-1.61l-0.25,0.26
	c-0.19,0.2-0.36,0.43-0.51,0.7C14.69,14.67,14.62,14.89,14.62,15.06z M18.01,9.02c0.67-0.66,1.5-0.99,2.48-0.99
	c0.98,0,1.81,0.34,2.49,1.02s1.03,1.51,1.03,2.48c0,0.63-0.17,1.25-0.51,1.85c-1-0.96-2.17-1.44-3.51-1.44H19.7
	C19.42,10.76,18.85,9.79,18.01,9.02z"/>
</svg>
